X:011 
T:Back Garden* (polka), The
F:file ID: cre.5/011back_g
B:CRE5.104 (gan ainm)
L:1/8
M:2/4
%Q:120
R:polka
K:D
c/B/|A>B Ad|BA FA|g>f eg|ba fd|
A>G AD|BA FD|EF/G/ F/A/B/c/|dcd:|
e|fe dc/d/|B/c/d/B/ A2|Bg gf/g/|a/g/e/d/ cA|
fe dc/d/|B/c/d/B/ A>c|d/c/d/B/ AB/c/|1dcd :|\
[2 dcd2-|d4||

%%%

